icons/evolvere-blue-folders-flat-vivid-dark-fallback/apps/64/calligrakarbon.svg

<?xml version="1.0" encoding="UTF-8" standalone="no"?>
<!-- Created with Inkscape (http://www.inkscape.org/) -->

<svg
   xmlns:dc="http://purl.org/dc/elements/1.1/"
   xmlns:cc="http://creativecommons.org/ns#"
   xmlns:rdf="http://www.w3.org/1999/02/22-rdf-syntax-ns#"
   xmlns:svg="http://www.w3.org/2000/svg"
   xmlns="http://www.w3.org/2000/svg"
   xmlns:sodipodi="http://sodipodi.sourceforge.net/DTD/sodipodi-0.dtd"
   xmlns:inkscape="http://www.inkscape.org/namespaces/inkscape"
   width="64"
   height="64"
   id="svg13094"
   version="1.1"
   inkscape:version="0.91+devel r"
   sodipodi:docname="calligrakarbon.svg">
  <sodipodi:namedview
     id="base"
     pagecolor="#ffffff"
     bordercolor="#666666"
     borderopacity="1.0"
     inkscape:pageopacity="0"
     inkscape:pageshadow="2"
     inkscape:zoom="11.313709"
     inkscape:cx="29.133091"
     inkscape:cy="31.064473"
     inkscape:document-units="px"
     inkscape:current-layer="svg13094"
     showgrid="true"
     inkscape:snap-bbox="true"
     inkscape:bbox-paths="true"
     inkscape:bbox-nodes="true"
     inkscape:snap-bbox-edge-midpoints="true"
     inkscape:snap-bbox-midpoints="true"
     inkscape:object-paths="true"
     inkscape:snap-intersection-paths="true"
     inkscape:object-nodes="true"
     inkscape:snap-smooth-nodes="true"
     inkscape:snap-midpoints="true"
     inkscape:snap-object-midpoints="true"
     inkscape:snap-center="true"
     showguides="true"
     inkscape:guide-bbox="true"
     inkscape:window-width="1920"
     inkscape:window-height="1023"
     inkscape:window-x="-10"
     inkscape:window-y="35"
     inkscape:window-maximized="1"
     inkscape:snap-global="true"
     fit-margin-top="0"
     fit-margin-left="0"
     fit-margin-right="0"
     fit-margin-bottom="0"
     showborder="true"
     inkscape:showpageshadow="false"
     inkscape:snap-page="true">
    <inkscape:grid
       type="xygrid"
       id="grid3075"
       empspacing="5"
       visible="true"
       enabled="true"
       snapvisiblegridlinesonly="true"
       originx="1.6362304e-08px"
       originy="18px" />
  </sodipodi:namedview>
  <defs
     id="defs13096">
    <inkscape:path-effect
       fuse_tolerance="0"
       vertical_pattern="false"
       prop_units="false"
       tang_offset="0"
       normal_offset="0"
       spacing="0"
       scale_y_rel="false"
       prop_scale="1"
       copytype="single_stretched"
       pattern="M -3.4903954e-7,0.82842735 2.8284268,-1.9999997 l 0,5.6568542 z"
       is_visible="true"
       id="path-effect3925"
       effect="skeletal" />
  </defs>
  <metadata
     id="metadata13099">
    <rdf:RDF>
      <cc:Work
         rdf:about="">
        <dc:format>image/svg+xml</dc:format>
        <dc:type
           rdf:resource="http://purl.org/dc/dcmitype/StillImage" />
        <dc:title></dc:title>
      </cc:Work>
    </rdf:RDF>
  </metadata>
  <path
     style="color:#000000;fill:#595bcc;fill-opacity:1;fill-rule:nonzero;stroke:none;stroke-width:2.28571415;marker:none;visibility:visible;display:inline;overflow:visible;enable-background:accumulate"
     d="M 0 4 L 0 34 L 0 62 L 2 64 L 32 64 L 62 64 L 64 62 L 64 34 L 64 4 L 32 4 L 0 4 z "
     id="path6498" />
  <path
     style="color:#000000;fill:#bfafff;fill-opacity:1;fill-rule:nonzero;stroke:none;marker:none;visibility:visible;display:inline;overflow:visible;enable-background:accumulate;stroke-width:2.28571415"
     d="M 2 0 L 0 1 L 0 4 L 32 4 L 64 4 L 64 1 L 62 0 L 32 0 L 2 0 z "
     id="path6502" />
  <g
     id="g3043"
     inkscape:export-filename="folder.png"
     inkscape:export-xdpi="90"
     inkscape:export-ydpi="90"
     transform="translate(-0.62500009,0.082283)" />
  <g
     id="scalable"
     transform="matrix(1.0385892,0,0,1.0385892,1214.7222,1878.8121)"
     inkscape:label="#g3701"
     style="fill:#ffffff" />
  <path
     style="color:#000000;fill:#888be9;fill-opacity:1;fill-rule:nonzero;stroke:none;stroke-width:2.28571415;marker:none;visibility:visible;display:inline;overflow:visible;enable-background:accumulate"
     d="M 0,4 1.6362304e-8,17 1,17 c 13.568466,-1.199301 29.696936,2.413894 34,10 1.95402,3.444849 -9.125466,5.105043 -5,10 5.176439,6.141959 16,10 27,11 L 64,47.40625 64,32 64,4 32,4 z"
     id="path3870"
     inkscape:connector-curvature="0"
     sodipodi:nodetypes="cccsscccccc" />
  <path
     sodipodi:nodetypes="cssc"
     inkscape:original-d="M 1.6362304e-8,17 C 16,15 30,19 36,26 c 2.577428,3.006999 -9.54951,7.45049 -7,10 7,7 17,11 28,12"
     inkscape:path-effect="#path-effect3925"
     inkscape:connector-curvature="0"
     id="path3923"
     d="M 1.0160567e-8,17 C 7.2149332,15.847408 14.695954,15.78076 21.937811,17.40265 c 0,0 2e-6,10e-7 2e-6,10e-7 5.460886,1.203862 11.032439,3.408174 15.056289,7.745261 0.535528,0.601499 0.789607,1.413199 0.668998,2.296922 -0.188448,0.847869 -0.56335,1.490794 -0.951115,1.927449 0,-1e-6 -2e-6,2e-6 -2e-6,2e-6 -1.016739,1.261922 -2.214652,2.19256 -3.270917,3.031626 0,0 -2e-6,3e-6 -2e-6,3e-6 -1.088321,0.893737 -2.124724,1.647473 -2.807863,2.505484 0,0 -1e-6,2e-6 -1e-6,2e-6 -0.205566,0.325706 -0.358027,0.463996 -0.269333,0.427849 0.01214,-0.29849 0.01054,-0.445646 -0.112658,-0.588458 7.166764,6.731273 17.164321,9.840958 27.004865,10.434398 l -0.512148,5.633622 C 45.948769,49.534278 35.233843,45.171752 27.748791,37.251209 c -0.660986,-0.680597 -0.940837,-1.624236 -0.763643,-2.665141 0.289341,-0.938629 0.73082,-1.563676 1.142901,-1.925895 1e-6,10e-7 2e-6,-2e-6 2e-6,-2e-6 1.135384,-1.167427 2.367891,-1.974352 3.451821,-2.720965 1.144725,-0.822986 2.226708,-1.511759 2.9783,-2.366385 0,0 10e-7,-2e-6 10e-7,-2e-6 0.243739,-0.319204 0.449839,-0.521511 0.448032,-0.640742 0.04124,0.04507 0.02002,-0.03299 -3.07e-4,-0.07999 -3.1448,-4.026338 -8.243754,-6.436781 -13.443705,-8.004737 -1e-6,1e-6 -4e-6,-1e-6 -4e-6,-1e-6 C 14.669618,16.794288 7.2766501,16.341144 1.0160567e-8,17 Z"
     style="fill:#343765;fill-opacity:1;stroke:none" />
  <path
     sodipodi:type="arc"
     style="color:#000000;fill:#d8d8e9;fill-opacity:1;fill-rule:nonzero;stroke:none;stroke-width:1.76776683;marker:none;visibility:visible;display:inline;overflow:visible;enable-background:accumulate"
     id="path4043"
     sodipodi:cx="13.611805"
     sodipodi:cy="16.53546"
     sodipodi:rx="3.5355337"
     sodipodi:ry="3.5355337"
     d="m 17.147339,16.53546 a 3.5355337,3.5355337 0 1 1 -7.071068,0 3.5355337,3.5355337 0 1 1 7.071068,0 z"
     transform="matrix(0.56568547,0,0,0.56568547,6.2999997,7.6461308)" />
  <path
     sodipodi:type="arc"
     style="color:#000000;fill:#d8d8e9;fill-opacity:1;fill-rule:nonzero;stroke:none;stroke-width:1.76776683;marker:none;visibility:visible;display:inline;overflow:visible;enable-background:accumulate"
     id="path4033"
     sodipodi:cx="13.611805"
     sodipodi:cy="16.53546"
     sodipodi:rx="3.5355337"
     sodipodi:ry="3.5355337"
     d="m 17.147339,16.53546 a 3.5355337,3.5355337 0 1 1 -7.071068,0 3.5355337,3.5355337 0 1 1 7.071068,0 z"
     transform="matrix(0.84852812,0,0,0.84852812,24.450001,11.969198)" />
  <path
     sodipodi:type="arc"
     style="color:#000000;fill:#d8d8e9;fill-opacity:1;fill-rule:nonzero;stroke:none;stroke-width:1.76776683;marker:none;visibility:visible;display:inline;overflow:visible;enable-background:accumulate"
     id="path4023"
     sodipodi:cx="13.611805"
     sodipodi:cy="16.53546"
     sodipodi:rx="3.5355337"
     sodipodi:ry="3.5355337"
     d="m 17.147339,16.53546 a 3.5355337,3.5355337 0 1 1 -7.071068,0 3.5355337,3.5355337 0 1 1 7.071068,0 z"
     transform="matrix(1.1313709,0,0,1.1313709,14.600001,17.292263)" />
  <path
     transform="matrix(1.6970563,0,0,1.6970563,33.900001,19.938394)"
     d="m 17.147339,16.53546 a 3.5355337,3.5355337 0 1 1 -7.071068,0 3.5355337,3.5355337 0 1 1 7.071068,0 z"
     sodipodi:ry="3.5355337"
     sodipodi:rx="3.5355337"
     sodipodi:cy="16.53546"
     sodipodi:cx="13.611805"
     id="path4001"
     style="color:#000000;fill:#d8d8e9;fill-opacity:1;fill-rule:nonzero;stroke:none;stroke-width:1.76776683;marker:none;visibility:visible;display:inline;overflow:visible;enable-background:accumulate"
     sodipodi:type="arc" />
  <path
     style="fill:#d3c2ff;fill-opacity:1;fill-rule:nonzero"
     d="M 0,3 0,6 2,4 Z"
     id="path4298"
     inkscape:connector-curvature="0"
     sodipodi:nodetypes="cccc" />
  <path
     d="M 64,6 62,4 64,3 z"
     id="path3028"
     style="fill:#a29cf3;fill-opacity:1"
     inkscape:connector-curvature="0" />
</svg>

<svg xmlns="http://www.w3.org/2000/svg" viewBox="0 0 64 64" xmlns:xlink="http://www.w3.org/1999/xlink"><defs><path id="0" d="m17.14734 16.53546a3.535534 3.535534 0 1 1 -7.07107 0 3.535534 3.535534 0 1 1 7.07107 0" color="#000" fill="#d8d8e9"/></defs><g color="#000"><path d="m0 4v30 28l2 2h30 30l2-2v-28-30h-32-32" fill="#595bcc"/><path d="m2 0l-2 1v3h32 32v-3l-2-1h-30-30" fill="#bfafff"/><path d="m0 4v13h1c13.568-1.199 29.697 2.414 34 10 1.954 3.445-9.125 5.105-5 10 5.176 6.142 16 10 27 11l7-.594v-15.406-28h-32z" fill="#888be9"/></g><path d="m0 17c7.215-1.153 14.696-1.219 21.938.403 5.461 1.204 11.03 3.408 15.06 7.745.536.601.79 1.413.669 2.297-.188.848-.563 1.491-.951 1.927-1.017 1.262-2.215 2.193-3.271 3.03-1.088.894-2.125 1.647-2.808 2.505-.206.326-.358.464-.269.428.012-.298.011-.446-.113-.588 7.167 6.731 17.16 9.841 27 10.434l-.512 5.634c-10.795-1.283-21.51-5.645-28.995-13.566-.661-.681-.941-1.624-.764-2.665.289-.939.731-1.564 1.143-1.926 1.135-1.167 2.368-1.974 3.452-2.721 1.145-.823 2.227-1.512 2.978-2.366.244-.319.45-.522.448-.641.041.045.02-.033 0-.08-3.145-4.03-8.244-6.437-13.444-8-6.893-2.053-14.286-2.506-21.562-1.847" fill="#343765"/><use transform="matrix(.56569 0 0 .56569 6.3 7.646)" xlink:href="#0"/><use transform="matrix(.84853 0 0 .84853 24.45 11.969)" xlink:href="#0"/><use transform="matrix(1.13137 0 0 1.13137 14.6 17.292)" xlink:href="#0"/><use transform="matrix(1.69706 0 0 1.69706 33.9 19.938)" xlink:href="#0"/><path d="m0 3v3l2-2" fill="#d3c2ff"/><path d="m64 6l-2-2 2-1z" fill="#a29cf3"/></svg>
